book-edit.svg

<svg fill="currentColor" viewBox="0 0 24 24"><path d="M19.39 10.74 11 19.13V22H6c-1.11 0-2-.89-2-2V4a2 2 0 0 1 2-2h1v7l2.5-1.5L12 9V2h6a2 2 0 0 1 2 2v6.3c-.22.12-.43.26-.61.44M13 19.96V22h2.04l6.13-6.12-2.04-2.05zm9.85-6.49-1.32-1.32c-.2-.2-.53-.2-.72 0l-.98.98 2.04 2.04.98-.98c.2-.19.2-.52 0-.72"/></svg>

<svg  viewBox="0 0 24 24" fill="currentColor"><path  d="M19.39 10.74L11 19.13V22H6C4.89 22 4 21.11 4 20V4C4 2.9 4.89 2 6 2H7V9L9.5 7.5L12 9V2H18C19.1 2 20 2.89 20 4V10.3C19.78 10.42 19.57 10.56 19.39 10.74M13 19.96V22H15.04L21.17 15.88L19.13 13.83L13 19.96M22.85 13.47L21.53 12.15C21.33 11.95 21 11.95 20.81 12.15L19.83 13.13L21.87 15.17L22.85 14.19C23.05 14 23.05 13.67 22.85 13.47Z"/></svg>
